public/images/companies/logo-joinride.svg

<svg width="109" height="64" viewBox="0 0 109 64" fill="none" xmlns="http://www.w3.org/2000/svg">
<path d="M54.207 0C55.6423 0 56.9524 0.789202 57.6172 2.0498C58.2818 3.32004 58.1958 4.84071 57.3965 6.02441L33.8418 40.498C33.0904 41.5854 31.8863 42.1826 30.6533 42.1826C29.9021 42.1826 29.1509 41.9609 28.4863 41.5088C26.7234 40.3058 26.2801 37.9088 27.4746 36.1572L36.0391 23.6172C33.0335 21.4903 29.4591 20.3545 25.7021 20.3545C20.8952 20.3545 16.3771 22.222 12.9766 25.6191C9.57596 29.0164 7.70703 33.5208 7.70703 38.3232C7.70709 43.1256 9.57602 47.6389 12.9766 51.0361C16.3772 54.4334 20.8951 56.3008 25.7021 56.3008C28.1296 56.3008 30.4895 55.8288 32.7051 54.8857C35.4891 53.7116 37.9556 51.5941 39.8438 48.7646L64.6787 11.4238C69.1583 4.68699 76.4705 0.423048 84.2158 0.0380859C84.6588 0.00923425 85.0922 1.72802e-06 85.5352 0C92.2689 0 98.5982 2.56978 103.405 7.24707C103.444 7.27586 103.482 7.31417 103.521 7.35254C103.578 7.40066 103.637 7.44909 103.694 7.50684C103.701 7.51962 103.704 7.52637 103.704 7.52637C103.8 7.62246 103.887 7.71836 103.974 7.81445C109.455 13.5888 109.349 22.7317 103.694 28.3906C100.814 31.2682 97.0281 32.7021 93.2422 32.7021C89.4563 32.7021 85.6802 31.2682 82.7998 28.3906C81.2874 26.8796 81.2874 24.4447 82.7998 22.9434C84.3026 21.4425 86.7395 21.4424 88.2422 22.9434C90.9973 25.6958 95.487 25.6958 98.2422 22.9434C100.997 20.1909 100.997 15.7065 98.2422 12.9541C98.2229 12.9349 98.2029 12.9157 98.1836 12.8965C94.7926 9.54736 90.3037 7.69922 85.5352 7.69922C85.2269 7.69922 84.9186 7.70927 84.6104 7.72852C79.2831 7.99803 74.2352 10.9718 71.0947 15.6875L46.2598 53.0283C43.5431 57.1185 39.8917 60.2077 35.7012 61.9785C32.5319 63.3162 29.1701 64 25.7021 64C18.8335 64 12.3788 61.3339 7.5332 56.4834C2.67812 51.6329 6.22045e-05 45.1754 0 38.3232C0 31.4709 2.67795 25.0224 7.5332 20.1719C12.3788 15.3214 18.8335 12.6553 25.7021 12.6553C31.0294 12.6553 36.1066 14.2628 40.3838 17.2559L46.915 7.69922H25.7021C23.5732 7.69922 21.8486 5.97653 21.8486 3.84961C21.8486 1.7227 23.5732 0 25.7021 0H54.207ZM104.129 34.4736C106.258 34.4737 107.982 36.206 107.982 38.3232C107.982 45.1849 105.314 51.633 100.459 56.4834C95.6038 61.3339 89.1586 64 82.29 64C75.4214 64 68.9666 61.3339 64.1113 56.4834C62.1269 54.4912 60.48 52.2099 59.2373 49.6885C58.2934 47.783 59.0733 45.4832 60.9902 44.54C62.8977 43.5969 65.2101 44.3767 66.1445 46.2822C67.0211 48.0433 68.1677 49.6408 69.5645 51.0361C72.965 54.4333 77.483 56.3008 82.29 56.3008C87.097 56.3007 91.6149 54.4333 95.0059 51.0361C98.4064 47.639 100.275 43.1255 100.275 38.3232C100.275 36.2059 102.01 34.4736 104.129 34.4736Z" fill="#334155"/>
</svg>

<svg xmlns="http://www.w3.org/2000/svg" width="109" height="64" fill="currentColor" viewBox="0 0 109 64">
  <path d="M54.207 0a3.85 3.85 0 0 1 3.41 2.05 3.877 3.877 0 0 1-.22 3.974L33.842 40.498a3.875 3.875 0 0 1-3.189 1.685 3.838 3.838 0 0 1-2.167-.674 3.851 3.851 0 0 1-1.011-5.352l8.564-12.54c-3.006-2.127-6.58-3.262-10.337-3.262a17.884 17.884 0 0 0-12.725 5.264 17.827 17.827 0 0 0-5.27 12.704c0 4.803 1.869 9.316 5.27 12.713a17.883 17.883 0 0 0 12.725 5.265 17.79 17.79 0 0 0 7.003-1.415c2.784-1.174 5.25-3.292 7.139-6.121l24.835-37.341C69.159 4.687 76.47.423 84.216.038 84.659.01 85.092 0 85.536 0c6.733 0 13.062 2.57 17.869 7.247.039.029.077.067.116.106.057.048.116.096.173.154l.01.02c.096.095.183.191.27.287 5.481 5.775 5.375 14.918-.28 20.577-2.88 2.877-6.666 4.311-10.452 4.311A14.716 14.716 0 0 1 82.8 28.391a3.837 3.837 0 0 1 0-5.448 3.852 3.852 0 0 1 5.442 0c2.755 2.753 7.245 2.753 10 0 2.755-2.752 2.755-7.237 0-9.989-.02-.02-.04-.038-.058-.058A17.891 17.891 0 0 0 85.535 7.7c-.308 0-.616.01-.925.03-5.327.269-10.375 3.243-13.515 7.958L46.26 53.029c-2.717 4.09-6.368 7.18-10.559 8.95A25.57 25.57 0 0 1 25.702 64c-6.869 0-13.323-2.666-18.169-7.517C2.678 51.633 0 45.175 0 38.323s2.678-13.3 7.533-18.151c4.846-4.85 11.3-7.517 18.17-7.517 5.326 0 10.404 1.608 14.68 4.6L46.916 7.7H25.702a3.85 3.85 0 1 1 0-7.699h28.505Zm49.922 34.474a3.856 3.856 0 0 1 3.853 3.85c0 6.86-2.668 13.309-7.523 18.16C95.604 61.333 89.159 64 82.29 64s-13.323-2.666-18.179-7.517a25.753 25.753 0 0 1-4.874-6.794 3.833 3.833 0 0 1 1.753-5.149 3.842 3.842 0 0 1 5.154 1.742 18.097 18.097 0 0 0 3.42 4.754 17.883 17.883 0 0 0 12.726 5.265c4.807 0 9.325-1.868 12.716-5.265a17.848 17.848 0 0 0 5.269-12.713 3.864 3.864 0 0 1 3.854-3.85Z"/>
</svg>
